Yaru++/apps/scalable/google-play-music-desktop-player.svg

<svg height="256" viewBox="0 0 67.73 67.73" width="256" xmlns="http://www.w3.org/2000/svg" xmlns:xlink="http://www.w3.org/1999/xlink">
  <filter id="filter826" color-interpolation-filters="sRGB" height="1.023" width="1.025" x="-.01" y="-.01">
    <feGaussianBlur stdDeviation=".286"/>
  </filter>
  <filter id="filter840" color-interpolation-filters="sRGB" height="1.091" width="1.101" x="-.05" y="-.05">
    <feGaussianBlur stdDeviation="1.145"/>
  </filter>
  <g transform="translate(0 -229.26665)">
    <path d="m11.496527 232.33422c-.81429.0171-1.5176517.29985-2.049264.81423-.7539352.72028-1.1655982 1.88641-1.1655982 3.39528v51.87858c0 1.50964.4453442 2.67566 1.1655982 3.39528 1.097282 1.06311 2.811741 1.1657 4.766013.0337l14.958683-8.50003c.0198.005.03909.012.05891.0173l26.813494-15.22481c.007-.0241.01252-.0489.01946-.0731l3.891289-2.21075c3.292606-1.85148 3.292606-4.86851 0-6.75479l-3.705087-2.10502c-2.332402-9.61215-11.006879-16.76757-21.327395-16.76757-2.251282 0-4.424278.34097-6.470226.97309l-14.239128-8.09081c-.977136-.54884-1.902458-.79766-2.716749-.78057z" fill="#030303" filter="url(#filter840)" opacity=".1"/>
    <path d="m11.496527 232.33422c-.81429.0171-1.5176517.29985-2.049264.81423-.7539352.72028-1.1655982 1.88641-1.1655982 3.39528v51.87858c0 1.50964.4453442 2.67566 1.1655982 3.39528 1.097282 1.06311 2.811741 1.1657 4.766013.0337l14.958683-8.50003c.0198.005.03909.012.05891.0173l26.813494-15.22481c.007-.0241.01252-.0489.01946-.0731l3.891289-2.21075c3.292606-1.85148 3.292606-4.86851 0-6.75479l-3.705087-2.10502c-2.332402-9.61215-11.006879-16.76757-21.327395-16.76757-2.251282 0-4.424278.34097-6.470226.97309l-14.239128-8.09081c-.977136-.54884-1.902458-.79766-2.716749-.78057z" fill="#030303" filter="url(#filter826)" opacity=".1"/>
    <path d="m11.496527 232.33422c-.81429.0171-1.5176517.29985-2.049264.81423-.7539352.72028-1.1655982 1.88641-1.1655982 3.39528v51.87858c0 1.50964.4453442 2.67566 1.1655982 3.39528 1.097282 1.06311 2.811741 1.1657 4.766013.0337l14.958683-8.50003c.0198.005.03909.012.05891.0173l26.813494-15.22481c.007-.0241.01252-.0489.01946-.0731l3.891289-2.21075c3.292606-1.85148 3.292606-4.86851 0-6.75479l-3.705087-2.10502c-2.332402-9.61215-11.006879-16.76757-21.327395-16.76757-2.251282 0-4.424278.34097-6.470226.97309l-14.239128-8.09081c-.977136-.54884-1.902458-.79766-2.716749-.78057z" fill="#030303" opacity=".1"/>
    <path d="m59.577747 259.16481-44.939213-25.53474c-1.919987-1.07841-3.637729-.97741-4.6823014.0333-.7407089.70764-1.1454492 1.85322-1.1454492 3.33562v50.96834c0 1.48315.4378307 2.62871 1.1454492 3.33571 1.0780324 1.04446 2.7623144 1.14547 4.6823014.0333l44.939213-25.53524c3.234842-1.819 3.234842-4.78318 0-6.63637z" fill="#f1471d"/>
    <path d="m45.238281 13.59375c-3.023642.063449-5.63538 1.113434-7.609375 3.023438-2.799529 2.674544-4.328125 7.00465-4.328125 12.607421v2c0-5.602771 1.528596-9.932877 4.328125-12.607421 3.94799-3.820007 10.440622-4.200881 17.697266-.125l169.849608 96.507812c5.66336 3.24445 8.69664 7.39098 9.11328 11.58984.48282-4.86063-2.55046-9.83011-9.11328-13.58984l-169.849608-96.507812c-3.628322-2.037941-7.064248-2.961887-10.087891-2.898438z" fill="#fff" opacity=".3" transform="matrix(.26458333 0 0 .26458333 0 229.26665)"/>
    <path d="m55.73555 268.04442c.53982-1.85258.809482-3.8406.809482-5.86121 0-11.89195-9.669335-21.56018-21.560668-21.56018-11.891705 0-21.560052 9.66823-21.560052 21.56018 0 9.97135 6.771447 18.35941 15.968131 20.81908z" fill="#fcd117"/>
    <path d="m48.882363 262.50041c0 7.44177-6.032345 13.47498-13.474986 13.47498-7.442393 0-13.475108-6.03321-13.475108-13.47498 0-7.4424 6.032715-13.47512 13.475108-13.47512 7.442518-.00011 13.474986 6.03261 13.474986 13.47512z" fill="#f48b15"/>
    <path d="m35.407254 255.42608v8.28595c-.471785-.26843-1.010618-.43732-1.583403-.43732-1.75145 0-3.132854 1.41571-3.132854 3.1326 0 1.75267 1.414619 3.1336 3.132854 3.1336 1.752313 0 3.267931-1.41561 3.267931-3.1336v-7.61266h3.031607v-3.36869h-4.716135z" fill="#fff"/>
    <g transform="matrix(.26458333 0 0 .26458333 0 229.26665)">
      <path d="m234.28906 124.58984c-.41664 4.19447-3.44992 8.3076-9.11328 11.49219l-169.849608 96.51172c-7.256644 4.20348-13.622813 3.82257-17.697266-.125-2.674463-2.67213-4.328125-7.00182-4.328125-12.60742v2c0 5.6056 1.653662 9.93529 4.328125 12.60742 4.074453 3.94757 10.440622 4.32848 17.697266.125l169.849608-96.51172c6.56282-3.69037 9.5961-8.62645 9.11328-13.49219z" opacity=".2"/>
      <path d="m132.22461 42.921875c-44.945027 0-81.486329 36.540375-81.486329 81.486325 0 .24405.013483.48497.015625.72852.682495-44.360622 36.950957-80.214845 81.470704-80.214845 44.55886 0 80.85628 35.919485 81.47461 80.335935.00281-.28348.01367-.56577.01367-.84961 0-44.94595-36.54466-81.486325-81.48828-81.486325z" fill="#fff" opacity=".3"/>
      <path d="m133.82227 74.677734c-28.12873 0-50.927739 22.800932-50.927739 50.929686 0 .33535.018938.6662.025391 1 .53476-27.665396 23.108988-49.929686 50.902348-49.929686 27.79383-.00041 50.36956 22.263881 50.90429 49.929686.00645-.33379.02539-.66466.02539-1 0-28.12917-22.80048-50.930101-50.92968-50.929686z" fill="#fff" opacity=".3"/>
      <path d="m82.919922 124.60742c-.006453.33383-.025391.66463-.025391 1 0 28.12638 22.799009 50.92969 50.927739 50.92969 28.12966 0 50.92968-22.80331 50.92968-50.92969 0-.33537-.01894-.66617-.02539-1-.53472 27.66315-23.11 49.92969-50.90429 49.92969-27.79336 0-50.367588-22.26654-50.902348-49.92969z" opacity=".2"/>
      <path d="m140.18945 109.60156v2h11.45703v-2zm0 28.77344c0 6.49319-5.72864 11.8418-12.35156 11.8418-6.15943 0-11.27695-4.69613-11.78906-10.83203-.02712.32721-.05078.65641-.05078.99023 0 6.62426 5.34572 11.8418 11.83984 11.8418 6.62292 0 12.35156-5.34861 12.35156-11.8418z" fill="#090000" opacity=".2"/>
    </g>
  </g>
</svg>

<svg xmlns="http://www.w3.org/2000/svg" width="256" height="256" version="1.1" viewBox="0 0 67.73 67.73">
 <defs>
  <filter style="color-interpolation-filters:sRGB" id="filter826" width="1.025" height="1.023" x="-.01" y="-.01">
   <feGaussianBlur id="feGaussianBlur828" stdDeviation=".286"/>
  </filter>
  <filter style="color-interpolation-filters:sRGB" id="filter840" width="1.101" height="1.091" x="-.05" y="-.05">
   <feGaussianBlur id="feGaussianBlur842" stdDeviation="1.145"/>
  </filter>
 </defs>
 <g id="layer1" transform="translate(0,-229.26665)">
  <path style="fill:#030303;opacity:0.1;filter:url(#filter840)" d="m 11.496527,232.33422 c -0.81429,0.0171 -1.5176517,0.29985 -2.049264,0.81423 -0.7539352,0.72028 -1.1655982,1.88641 -1.1655982,3.39528 v 51.87858 c 0,1.50964 0.4453442,2.67566 1.1655982,3.39528 1.097282,1.06311 2.811741,1.1657 4.766013,0.0337 l 14.958683,-8.50003 c 0.0198,0.005 0.03909,0.012 0.05891,0.0173 l 26.813494,-15.22481 c 0.007,-0.0241 0.01252,-0.0489 0.01946,-0.0731 l 3.891289,-2.21075 c 3.292606,-1.85148 3.292606,-4.86851 0,-6.75479 l -3.705087,-2.10502 c -2.332402,-9.61215 -11.006879,-16.76757 -21.327395,-16.76757 -2.251282,0 -4.424278,0.34097 -6.470226,0.97309 L 14.213276,233.1148 c -0.977136,-0.54884 -1.902458,-0.79766 -2.716749,-0.78057 z"/>
  <path d="m 11.496527,232.33422 c -0.81429,0.0171 -1.5176517,0.29985 -2.049264,0.81423 -0.7539352,0.72028 -1.1655982,1.88641 -1.1655982,3.39528 v 51.87858 c 0,1.50964 0.4453442,2.67566 1.1655982,3.39528 1.097282,1.06311 2.811741,1.1657 4.766013,0.0337 l 14.958683,-8.50003 c 0.0198,0.005 0.03909,0.012 0.05891,0.0173 l 26.813494,-15.22481 c 0.007,-0.0241 0.01252,-0.0489 0.01946,-0.0731 l 3.891289,-2.21075 c 3.292606,-1.85148 3.292606,-4.86851 0,-6.75479 l -3.705087,-2.10502 c -2.332402,-9.61215 -11.006879,-16.76757 -21.327395,-16.76757 -2.251282,0 -4.424278,0.34097 -6.470226,0.97309 L 14.213276,233.1148 c -0.977136,-0.54884 -1.902458,-0.79766 -2.716749,-0.78057 z" style="fill:#030303;opacity:0.1;filter:url(#filter826)"/>
  <path style="fill:#030303;opacity:0.1" d="m 11.496527,232.33422 c -0.81429,0.0171 -1.5176517,0.29985 -2.049264,0.81423 -0.7539352,0.72028 -1.1655982,1.88641 -1.1655982,3.39528 v 51.87858 c 0,1.50964 0.4453442,2.67566 1.1655982,3.39528 1.097282,1.06311 2.811741,1.1657 4.766013,0.0337 l 14.958683,-8.50003 c 0.0198,0.005 0.03909,0.012 0.05891,0.0173 l 26.813494,-15.22481 c 0.007,-0.0241 0.01252,-0.0489 0.01946,-0.0731 l 3.891289,-2.21075 c 3.292606,-1.85148 3.292606,-4.86851 0,-6.75479 l -3.705087,-2.10502 c -2.332402,-9.61215 -11.006879,-16.76757 -21.327395,-16.76757 -2.251282,0 -4.424278,0.34097 -6.470226,0.97309 L 14.213276,233.1148 c -0.977136,-0.54884 -1.902458,-0.79766 -2.716749,-0.78057 z"/>
  <path style="fill:#f1471d" d="M 59.577747,259.16481 14.638534,233.63007 c -1.919987,-1.07841 -3.637729,-0.97741 -4.6823014,0.0333 v 0 c -0.7407089,0.70764 -1.1454492,1.85322 -1.1454492,3.33562 v 50.96834 c 0,1.48315 0.4378307,2.62871 1.1454492,3.33571 v 0 c 1.0780324,1.04446 2.7623144,1.14547 4.6823014,0.0333 L 59.577747,265.8011 c 3.234842,-1.819 3.234842,-4.78318 0,-6.63637 z"/>
  <path style="fill:#ffffff;opacity:0.3" d="M 45.238281 13.59375 C 42.214639 13.657199 39.602901 14.707184 37.628906 16.617188 C 34.829377 19.291732 33.300781 23.621838 33.300781 29.224609 L 33.300781 31.224609 C 33.300781 25.621838 34.829377 21.291732 37.628906 18.617188 C 41.576896 14.797181 48.069528 14.416307 55.326172 18.492188 L 225.17578 115 C 230.83914 118.24445 233.87242 122.39098 234.28906 126.58984 C 234.77188 121.72921 231.7386 116.75973 225.17578 113 L 55.326172 16.492188 C 51.69785 14.454247 48.261924 13.530301 45.238281 13.59375 z" transform="matrix(0.26458333,0,0,0.26458333,0,229.26665)"/>
  <path style="fill:#fcd117" d="m 55.73555,268.04442 c 0.53982,-1.85258 0.809482,-3.8406 0.809482,-5.86121 0,-11.89195 -9.669335,-21.56018 -21.560668,-21.56018 -11.891705,0 -21.560052,9.66823 -21.560052,21.56018 0,9.97135 6.771447,18.35941 15.968131,20.81908 z"/>
  <path style="fill:#f48b15" d="m 48.882363,262.50041 c 0,7.44177 -6.032345,13.47498 -13.474986,13.47498 -7.442393,0 -13.475108,-6.03321 -13.475108,-13.47498 0,-7.4424 6.032715,-13.47512 13.475108,-13.47512 7.442518,-1.1e-4 13.474986,6.03261 13.474986,13.47512 z"/>
  <path style="fill:#ffffff" d="m 35.407254,255.42608 v 8.28595 c -0.471785,-0.26843 -1.010618,-0.43732 -1.583403,-0.43732 -1.75145,0 -3.132854,1.41571 -3.132854,3.1326 0,1.75267 1.414619,3.1336 3.132854,3.1336 1.752313,0 3.267931,-1.41561 3.267931,-3.1336 v -7.61266 h 3.031607 v -3.36869 h -4.716135 z"/>
  <path style="opacity:0.2" d="M 234.28906 124.58984 C 233.87242 128.78431 230.83914 132.89744 225.17578 136.08203 L 55.326172 232.59375 C 48.069528 236.79723 41.703359 236.41632 37.628906 232.46875 C 34.954443 229.79662 33.300781 225.46693 33.300781 219.86133 L 33.300781 221.86133 C 33.300781 227.46693 34.954443 231.79662 37.628906 234.46875 C 41.703359 238.41632 48.069528 238.79723 55.326172 234.59375 L 225.17578 138.08203 C 231.7386 134.39166 234.77188 129.45558 234.28906 124.58984 z" transform="matrix(0.26458333,0,0,0.26458333,0,229.26665)"/>
  <path style="fill:#ffffff;opacity:0.3" d="M 132.22461 42.921875 C 87.279583 42.921875 50.738281 79.46225 50.738281 124.4082 C 50.738281 124.65225 50.751764 124.89317 50.753906 125.13672 C 51.436401 80.776098 87.704863 44.921875 132.22461 44.921875 C 176.78347 44.921875 213.08089 80.84136 213.69922 125.25781 C 213.70203 124.97433 213.71289 124.69204 213.71289 124.4082 C 213.71289 79.46225 177.16823 42.921875 132.22461 42.921875 z" transform="matrix(0.26458333,0,0,0.26458333,0,229.26665)"/>
  <path style="fill:#ffffff;opacity:0.3" d="M 133.82227 74.677734 C 105.69354 74.677734 82.894531 97.478666 82.894531 125.60742 C 82.894531 125.94277 82.913469 126.27362 82.919922 126.60742 C 83.454682 98.942024 106.02891 76.677734 133.82227 76.677734 C 161.6161 76.677324 184.19183 98.941615 184.72656 126.60742 C 184.73301 126.27363 184.75195 125.94276 184.75195 125.60742 C 184.75195 97.47825 161.95147 74.677319 133.82227 74.677734 z" transform="matrix(0.26458333,0,0,0.26458333,0,229.26665)"/>
  <path style="opacity:0.2" d="M 82.919922 124.60742 C 82.913469 124.94125 82.894531 125.27205 82.894531 125.60742 C 82.894531 153.7338 105.69354 176.53711 133.82227 176.53711 C 161.95193 176.53711 184.75195 153.7338 184.75195 125.60742 C 184.75195 125.27205 184.73301 124.94125 184.72656 124.60742 C 184.19184 152.27057 161.61656 174.53711 133.82227 174.53711 C 106.02891 174.53711 83.454682 152.27057 82.919922 124.60742 z" transform="matrix(0.26458333,0,0,0.26458333,0,229.26665)"/>
  <path style="fill:#090000;opacity:0.2" d="M 140.18945 109.60156 L 140.18945 111.60156 L 151.64648 111.60156 L 151.64648 109.60156 L 140.18945 109.60156 z M 140.18945 138.375 C 140.18945 144.86819 134.46081 150.2168 127.83789 150.2168 C 121.67846 150.2168 116.56094 145.52067 116.04883 139.38477 C 116.02171 139.71198 115.99805 140.04118 115.99805 140.375 C 115.99805 146.99926 121.34377 152.2168 127.83789 152.2168 C 134.46081 152.2168 140.18945 146.86819 140.18945 140.375 L 140.18945 138.375 z" transform="matrix(0.26458333,0,0,0.26458333,0,229.26665)"/>
 </g>
</svg>
